src/assets/images/homework/btn-linkedin.svg

<svg xmlns="http://www.w3.org/2000/svg" width="30" height="80" xml:space="preserve"><path fill="#0F80C4" d="M10.1 7.1c0 1.4-1.1 2.6-2.5 2.6C6.1 9.7 5 8.5 5 7.1s1.1-2.6 2.6-2.6c1.4 0 2.5 1.2 2.5 2.6zm-.3 4.4H5.4v14h4.3l.1-14zm6.9 0h-4.2v14h4.2v-7.4c0-2 .9-3.1 2.6-3.1 1.6 0 2.4 1.1 2.4 3.1v7.4H26v-8.9c0-3.8-2.1-5.6-5.1-5.6s-4.2 2.3-4.2 2.3v-1.8z"/><path fill="#0D6BA8" d="M10.1 57.1c0 1.4-1.1 2.6-2.5 2.6-1.5 0-2.6-1.2-2.6-2.6 0-1.4 1.1-2.6 2.6-2.6 1.4 0 2.5 1.2 2.5 2.6zm-.3 4.4H5.4v14h4.3l.1-14zm6.9 0h-4.2v14h4.2v-7.4c0-2 .9-3.1 2.6-3.1 1.6 0 2.4 1.1 2.4 3.1v7.4H26v-8.9c0-3.8-2.1-5.6-5.1-5.6s-4.2 2.3-4.2 2.3v-1.8z"/></svg>

<?xml version="1.0" encoding="utf-8"?>
<!-- Generator: Adobe Illustrator 18.0.0, SVG Export Plug-In . SVG Version: 6.00 Build 0)  -->
<!DOCTYPE svg PUBLIC "-//W3C//DTD SVG 1.1//EN" "http://www.w3.org/Graphics/SVG/1.1/DTD/svg11.dtd">
<svg version="1.1" id="Layer_1" xmlns="http://www.w3.org/2000/svg" xmlns:xlink="http://www.w3.org/1999/xlink" x="0px" y="0px"
	 width="30px" height="80px" viewBox="0 0 30 80" enable-background="new 0 0 30 80" xml:space="preserve">
<path id="linkedin-icon" fill="#0F80C4" d="M10.1,7.1c0,1.4-1.1,2.6-2.5,2.6C6.1,9.7,5,8.5,5,7.1s1.1-2.6,2.6-2.6
	C9,4.5,10.1,5.7,10.1,7.1z M9.8,11.5H5.4v14h4.3L9.8,11.5L9.8,11.5z M16.7,11.5h-4.2v14h4.2c0,0,0-5.2,0-7.4c0-2,0.9-3.1,2.6-3.1
	c1.6,0,2.4,1.1,2.4,3.1s0,7.4,0,7.4H26c0,0,0-5.1,0-8.9S23.9,11,20.9,11s-4.2,2.3-4.2,2.3V11.5L16.7,11.5z"/>
<path id="linkedin-icon_1_" fill="#0D6BA8" d="M10.1,57.1c0,1.4-1.1,2.6-2.5,2.6c-1.5,0-2.6-1.2-2.6-2.6c0-1.4,1.1-2.6,2.6-2.6
	C9,54.5,10.1,55.7,10.1,57.1z M9.8,61.5H5.4v14h4.3L9.8,61.5L9.8,61.5z M16.7,61.5h-4.2v14h4.2c0,0,0-5.2,0-7.4c0-2,0.9-3.1,2.6-3.1
	c1.6,0,2.4,1.1,2.4,3.1s0,7.4,0,7.4H26c0,0,0-5.1,0-8.9c0-3.8-2.1-5.6-5.1-5.6s-4.2,2.3-4.2,2.3V61.5L16.7,61.5z"/>
</svg>
